X:3166
T:Colección Feij\'oo: N\'umero 11
O:Galicia (Spain)
B:Libro Aires da Terra, de J.L. Calle
Z:Transcrito por Jos\'e J. Presedo
Z:Covertido de Midi a abc por Antonio-Nil
N:http://www.arrakis.es/~jpresedo/
M: 4/4
L: 1/8
Q:1/4=200
K:D % 2 sharps
z3A3/2F/2A F2|Ad cA Bc GA/2G/2-|[G/2F/2-]F/2G E2 FA/2G/2- [G/2F/2-]F/2E|AF DA3/2F/2A F2|
Ad cA Bc GA/2G/2-|[G/2F/2-]F/2G EF GA/2G/2- [G/2E/2-]E/2C|D2 AA FA F2|Ad cA Bc GA/2G/2-|
[G/2F/2-]F/2G E2 FA/2G/2- [G/2F/2-]F/2E|AF DA3/2F/2A F2|Ad cA Bc GA/2G/2-|[G/2F/2-]F/2G EF GA/2G/2- [G/2E/2-]E/2C|
D4 zA B/2A/2-[A/2G/2-]G/2|BA3/2G/2E FE/2-[F/2-E/2] F/2B/2-[B/2A/2-]A/2-|A/2G/2E E3/2F/2 GA/2G/2- [G/2F/2-]F/2E|AF DD2A B/2A/2-[A/2G/2-]G/2|
BA3/2G/2E G/2<F/2E/2-[F/2-E/2] F/2B/2-[B/2A/2-]A/2-|A/2G/2E E3/2F/2 GG3/2E/2C|D4 zA B/2A/2-[A/2G/2-]G/2|BA3/2G/2E FE/2-[F/2-E/2] F/2B/2-[B/2A/2-]A/2-|
A/2G/2E E3/2F/2 GA/2G/2- [G/2F/2-]F/2E|AF DD2A B/2A/2-[A/2G/2-]G/2|BA3/2G/2E G/2<F/2E/2-[F/2-E/2] F/2B/2-[B/2A/2-]A/2-|A/2G/2E E3/2F/2 GG3/2E/2C|
D3A3/2F/2A F2|Ad cA Bc GA/2G/2-|[G/2F/2-]F/2G E2 FA/2G/2- [G/2F/2-]F/2E|AF DA3/2F/2A F2|
Ad cA Bc GA/2G/2-|[G/2F/2-]F/2G EF GA/2G/2- [G/2E/2-]E/2C|D2 AA FA F2|Ad cA Bc GA/2G/2-|
[G/2F/2-]F/2G E2 FA/2G/2- [G/2F/2-]F/2E|AF DA3/2F/2A F2|Ad cA Bc GA/2G/2-|[G/2F/2-]F/2G EF GA/2G/2- [G/2E/2-]E/2C|
D4 zA B/2A/2-[A/2G/2-]G/2|BA3/2G/2E FE/2-[F/2-E/2] F/2B/2-[B/2A/2-]A/2-|A/2G/2E E3/2F/2 GA/2G/2- [G/2F/2-]F/2E|AF DD2A B/2A/2-[A/2G/2-]G/2|
BA3/2G/2E G/2<F/2E/2-[F/2-E/2] F/2B/2-[B/2A/2-]A/2-|A/2G/2E E3/2F/2 GG3/2E/2C|D4 zA B/2A/2-[A/2G/2-]G/2|BA3/2G/2E FE/2-[F/2-E/2] F/2B/2-[B/2A/2-]A/2-|
A/2G/2E E3/2F/2 GA/2G/2- [G/2F/2-]F/2E|AF DD2A B/2A/2-[A/2G/2-]G/2|BA3/2G/2E G/2<F/2E/2-[F/2-E/2] F/2B/2-[B/2A/2-]A/2-|A/2G/2E E3/2F/2 GG3/2E/2C|
D3A3/2F/2A F2|Ad cA Bc GA/2G/2-|[G/2F/2-]F/2G E2 FA/2G/2- [G/2F/2-]F/2E|AF DA3/2F/2A F2|
Ad cA Bc GA/2G/2-|[G/2F/2-]F/2G EF GA/2G/2- [G/2E/2-]E/2C|D2 AA FA F2|Ad cA Bc GA/2G/2-|
[G/2F/2-]F/2G E2 FA/2G/2- [G/2F/2-]F/2E|AF DA3/2F/2A F2|Ad cA Bc GA/2G/2-|[G/2F/2-]F/2G EF GA/2G/2- [G/2E/2-]E/2C|
D4 


